X: 18
T: Sporting Paddy
Z: Sean Perry
S: https://thesession.org/tunes/430#setting50960
R: reel
M: 4/4
L: 1/8
K: Ador
|:EA A/A/A GABG|EAAB G2 {AG}ED|EA A/A/A GABd|1efge dBAG:|2efge d2 A/B/d||
ge e/e/e gede|ge e/e/e a3 b|ge e/e/e gedg|efge d2 A/B/d|
ge e/e/e gede|ge e/e/e a2 ga|b/a/g af gfed|efge dBAG||

%-------------------- TUNE SEPARATOR --------------------%

